ix/refresh-circle_outline.svg

<svg viewBox="0 0 24 24" fill="none" xmlns="http://www.w3.org/2000/svg" height="1em" width="1em">
  <path d="M12 22.75C6.07 22.75 1.25 17.93 1.25 12C1.25 6.07 6.07 1.25 12 1.25C17.93 1.25 22.75 6.07 22.75 12C22.75 17.93 17.93 22.75 12 22.75ZM12 2.75C6.9 2.75 2.75 6.9 2.75 12C2.75 17.1 6.9 21.25 12 21.25C17.1 21.25 21.25 17.1 21.25 12C21.25 6.9 17.1 2.75 12 2.75Z" fill="#292D32"/>
  <path d="M11.9995 17.4701C10.5995 17.4701 9.19946 16.9401 8.12946 15.8701C7.84946 15.5901 7.59945 15.2801 7.36945 14.9101C7.14945 14.5601 7.25944 14.1001 7.60944 13.8801C7.95944 13.6601 8.41947 13.7701 8.63947 14.1201C8.80947 14.4001 8.98945 14.6201 9.18945 14.8201C10.7395 16.3701 13.2594 16.3701 14.8094 14.8201C15.4094 14.2201 15.7895 13.4401 15.9195 12.5701C15.9795 12.1601 16.3594 11.8601 16.7694 11.9301C17.1794 11.9901 17.4595 12.3701 17.4095 12.7801C17.2395 13.9701 16.7095 15.0401 15.8795 15.8801C14.7995 16.9401 13.3995 17.4701 11.9995 17.4701Z" fill="#292D32"/>
  <path d="M7.3399 12.08C7.2999 12.08 7.26991 12.08 7.22991 12.07C6.81991 12.01 6.5299 11.6299 6.5899 11.2199C6.7599 10.0299 7.2899 8.95996 8.1199 8.11996C10.2499 5.98996 13.7199 5.98996 15.8599 8.11996C16.1399 8.39996 16.3899 8.70999 16.6199 9.08999C16.8399 9.43999 16.7299 9.89996 16.3799 10.12C16.0299 10.34 15.5699 10.23 15.3499 9.87997C15.1799 9.60997 14.9999 9.37996 14.7999 9.17996C13.2499 7.62996 10.7299 7.62996 9.17989 9.17996C8.57989 9.77996 8.19991 10.56 8.06991 11.43C8.02991 11.81 7.7099 12.08 7.3399 12.08Z" fill="#292D32"/>
  <path d="M7.82031 17.93C7.41031 17.93 7.07031 17.59 7.07031 17.18V14.51C7.07031 14.1 7.41031 13.76 7.82031 13.76H10.4903C10.9003 13.76 11.2403 14.1 11.2403 14.51C11.2403 14.92 10.9003 15.26 10.4903 15.26H8.57031V17.18C8.57031 17.59 8.24031 17.93 7.82031 17.93Z" fill="#292D32"/>
  <path d="M16.1797 10.2401H13.5098C13.0998 10.2401 12.7598 9.90005 12.7598 9.49005C12.7598 9.08005 13.0998 8.74005 13.5098 8.74005H15.4297V6.82007C15.4297 6.41007 15.7697 6.07007 16.1797 6.07007C16.5897 6.07007 16.9297 6.41007 16.9297 6.82007V9.49005C16.9297 9.91005 16.5897 10.2401 16.1797 10.2401Z" fill="#292D32"/>
</svg>

<svg viewBox="0 0 24 24" fill="none" xmlns="http://www.w3.org/2000/svg" height="1em" width="1em">
  <path d="M12 22.75C6.07 22.75 1.25 17.93 1.25 12S6.07 1.25 12 1.25 22.75 6.07 22.75 12 17.93 22.75 12 22.75Zm0-20C6.9 2.75 2.75 6.9 2.75 12S6.9 21.25 12 21.25s9.25-4.15 9.25-9.25S17.1 2.75 12 2.75Z" fill="#292D32"/>
  <path d="M12 17.47c-1.4 0-2.8-.53-3.87-1.6-.28-.28-.53-.59-.76-.96a.747.747 0 1 1 1.27-.79c.17.28.35.5.55.7a3.977 3.977 0 0 0 5.62 0c.6-.6.98-1.38 1.11-2.25.06-.41.44-.71.85-.64.41.06.69.44.64.85-.17 1.19-.7 2.26-1.53 3.1A5.522 5.522 0 0 1 12 17.47Zm-4.66-5.39c-.04 0-.07 0-.11-.01a.754.754 0 0 1-.64-.85c.17-1.19.7-2.26 1.53-3.1 2.13-2.13 5.6-2.13 7.74 0 .28.28.53.59.76.97a.747.747 0 1 1-1.27.79c-.17-.27-.35-.5-.55-.7a3.977 3.977 0 0 0-5.62 0c-.6.6-.98 1.38-1.11 2.25-.04.38-.36.65-.73.65Z" fill="#292D32"/>
  <path d="M7.82 17.93c-.41 0-.75-.34-.75-.75v-2.67c0-.41.34-.75.75-.75h2.67c.41 0 .75.34.75.75s-.34.75-.75.75H8.57v1.92c0 .41-.33.75-.75.75Zm8.36-7.69h-2.67c-.41 0-.75-.34-.75-.75s.34-.75.75-.75h1.92V6.82c0-.41.34-.75.75-.75s.75.34.75.75v2.67c0 .42-.34.75-.75.75Z" fill="#292D32"/>
</svg>
